Sources/FrostedUI/Resources/Icons.xcassets/cameraAddFilled24.imageset/camera-add-filled-24.svg

<svg width="24" height="24" viewBox="0 0 24 24" fill="none" xmlns="http://www.w3.org/2000/svg" data-fui-icon="true">
  <path
    d="M14.1475 1.25C15.2684 1.25002 16.3332 1.68298 17.1328 2.43848C17.2555 2.55442 17.1688 2.75 17 2.75C15.7574 2.75 14.75 3.75736 14.75 5C14.75 6.24264 15.7574 7.25 17 7.25C17.4142 7.25 17.75 7.58579 17.75 8C17.75 9.24264 18.7574 10.25 20 10.25C21.2426 10.25 22.25 9.24264 22.25 8C22.25 7.58579 22.5858 7.25 23 7.25C23.3005 7.25 23.6051 7.39756 23.668 7.69141C23.7217 7.9427 23.75 8.20339 23.75 8.4707V18.4004C23.7498 20.8025 21.8025 22.7498 19.4004 22.75H4.59961C2.19748 22.7498 0.250211 20.8025 0.25 18.4004V8.4707C0.250186 6.4159 1.9159 4.75019 3.9707 4.75C4.68787 4.75 5.36139 4.40382 5.77832 3.82031L6.3125 3.07129C7.12903 1.92817 8.44775 1.25003 9.85254 1.25H14.1475ZM12 7.5C9.1005 7.5 6.75 9.8505 6.75 12.75C6.75 15.6495 9.1005 18 12 18C14.8995 18 17.25 15.6495 17.25 12.75C17.25 9.8505 14.8995 7.5 12 7.5ZM12 9C14.0711 9 15.75 10.6789 15.75 12.75C15.75 14.8211 14.0711 16.5 12 16.5C9.92893 16.5 8.25 14.8211 8.25 12.75C8.25 10.6789 9.92893 9 12 9ZM20 1C20.5523 1 21 1.44772 21 2V4H23C23.5523 4 24 4.44772 24 5C24 5.55228 23.5523 6 23 6H21V8C21 8.55228 20.5523 9 20 9C19.4477 9 19 8.55228 19 8V6H17C16.4477 6 16 5.55228 16 5C16 4.44772 16.4477 4 17 4H19V2C19 1.44772 19.4477 1 20 1Z"
    fill="currentColor"
  />
</svg>

<svg xmlns="http://www.w3.org/2000/svg" width="24" height="24" fill="none" data-fui-icon="true" viewBox="0 0 24 24"><path fill="currentColor" d="M14.148 1.25c1.12 0 2.185.433 2.985 1.188.123.116.036.312-.133.312a2.25 2.25 0 0 0 0 4.5.75.75 0 0 1 .75.75 2.25 2.25 0 0 0 4.5 0 .75.75 0 0 1 .75-.75c.3 0 .605.148.668.441q.081.378.082.78v9.93a4.35 4.35 0 0 1-4.35 4.349H4.6A4.35 4.35 0 0 1 .25 18.4V8.47a3.72 3.72 0 0 1 3.72-3.72c.718 0 1.391-.346 1.808-.93l.535-.749a4.35 4.35 0 0 1 3.54-1.821zM12 7.5A5.25 5.25 0 1 0 12 18a5.25 5.25 0 0 0 0-10.5M12 9a3.75 3.75 0 1 1 0 7.5A3.75 3.75 0 0 1 12 9m8-8a1 1 0 0 1 1 1v2h2a1 1 0 1 1 0 2h-2v2a1 1 0 1 1-2 0V6h-2a1 1 0 1 1 0-2h2V2a1 1 0 0 1 1-1"/></svg>
